X:1
T:The Birthday of Our King
T:The Birthday of Our King
T:Alonzo Judson Abbey
T:Harriet E. Rice Jones, 1886
T:Public Domain Courtesy of the Cyber Hymnal™
T:Public Domain Courtesy of the Cyber Hymnal™
C:Alonzo Judson Abbey
Z:Public Domain
Z:Courtesy of the Cyber Hymnal™
%%score ( 1 2 ) ( 3 4 )
L:1/8
Q:1/4=105
M:4/4
K:Bb
V:1 treble 
V:2 treble 
V:3 bass 
V:4 bass 
V:1
 [DF]3 [EG] [DF]2 [CE]2 | [B,D]2 [DF]2 [DF]4 | [FB]3 [^Fc] [GB]2 [EG]2 | F2 [DB]2 [Fc]4 | %4
w: 1.~Hear the mer- ry|Christ- mas bells,|Sound- ing o’er the|hills and dells;|
w: 2.~Lit- tle eyes are|shin- ing bright,|From the heart’s in-|most de- light;|
w: 3.~Youths and maid- ens|gai- ly glide|O’er the snow at|ev- en- tide;|
w: 4.~Old- er hearts re-|joice to- day;|Well they may, yes,|well they may:|
 [Fd]3 [Ge] [Fd]2 [DB]2 | [Fd]2 [Fc]2 [Fc]2 [Fe][Fe] | [Fd]2 [Gc]2 [FB]2 [EA]2 | [DB]6 || %8
w: Men re- joice, and|an- gels sing, ’Tis the|birth- day of our|king.|
w: As the an- gels|kind- ly bring Gifts this|birth- day of our|king.|
w: Hear them chant and|gai- ly sing, On the|birth- day of our|king.|
w: Ev- ery fear doth|near- er bring, The glad|com- ing of their|king.|
"^Refrain" (3(FG)A | (z2 A)c B x3 | (z E2) (3:2:1B x113/24 | (z2 [FA])[FB] [Fc] x3 | %12
w: ||||
w: Hear * the|* bells, the|* mer-|* ry bells,|
w: ||||
w: ||||
 [Fd]6 (3(FB)[Ec] | [Fd]4- [Fd][Fd][=E^c][Fd] | ([EG]2 [Ge]4) [Fd][Ec] | %15
w: |||
w: Clear and * sweet|the * mu- sic swells;|Let * them ring,|
w: |||
w: |||
 [DB]2 [DB]2 ([CA][DB]) [Ec]2 | !fermata![DB]6 |] %17
w: ||
w: oh, let them * ring,|’Tis|
w: ||
w: ||
V:2
 x8 | x8 | x8 | F2 x6 | x8 | x8 | x8 | x6 || x2 | (B4 DDD) x | (G4 EEE (3:2:2GA) | c4 (FFF) x | %12
 x6 D2 | x8 | x8 | x8 | x6 |] %17
V:3
 [B,,B,]3 [B,,B,] [B,,B,]2 [B,,F,]2 | [B,,F,]2 [B,,B,]2 [B,,B,]4 | [D,B,]3 [D,B,] [E,B,]2 [E,B,]2 | %3
w: ~ ~ ~ ~|~ ~ ~|~ ~ ~ ~|
 [D,B,]2 [G,B,]2 [F,A,]4 | [B,,B,]3 [B,,B,] [B,,B,]2 [B,,B,]2 | %5
w: ~ ~ ~|~ ~ ~ ~|
 [F,B,]2 [F,A,]2 [F,A,]2 [F,A,][F,A,] | B,2 [E,E]2 [F,D]2 [F,C]2 | [B,,B,]6 || z2 | %9
w: ~ ~ ~ ~ ~|~ ~ ~ ~|~||
 z2 [B,,B,][B,,B,] [B,,B,] z3 | z [E,B,][E,B,][E,B,] [E,B,]2 z2 x3/8 | %11
w: Hear the bells,|the mer- ry bells,|
 z2 [F,A,][F,A,] [F,A,][E,C][D,B,][C,A,] | z B,,D,F, B,2 z2 | z2 [B,,B,][B,,B,] [B,,B,]2 z2 | %14
w: Clear and sweet the mu- sic|swell, the mu- sic|swells; Let them|
 z2 [E,B,][E,B,] [E,B,]2 [E,G,][E,G,] | F,2 F,2 [F,,F,]2 [F,,F,]2 | !fermata![B,,F,]6 |] %17
w: ring, Let them ring *|||
V:4
 x8 | x8 | x8 | x8 | x8 | x8 | B,2 x6 | x6 || x2 | x8 | x67/8 | x8 | [B,,B,]6 x2 | x8 | x8 | %15
 F,2 F,2 x4 | x6 |] %17

